svgs/thin/grate-droplet.svg

<svg xmlns="http://www.w3.org/2000/svg" viewBox="0 0 576 512"><!--! Font Awesome Pro 6.6.0 by @fontawesome - https://fontawesome.com License - https://fontawesome.com/license (Commercial License) Copyright 2024 Fonticons, Inc. --><path d="M64 48l320 0c26.5 0 48 21.5 48 48l0 73.5c4.9-3.2 10.3-5.7 16-7.3L448 96c0-35.3-28.7-64-64-64L64 32C28.7 32 0 60.7 0 96L0 416c0 35.3 28.7 64 64 64l280.2 0c-3.4-5.1-6.5-10.5-9.3-16L64 464c-26.5 0-48-21.5-48-48L16 96c0-26.5 21.5-48 48-48zm320 72c0-13.3-10.7-24-24-24l-64 0-72 0-72 0L88 96c-13.3 0-24 10.7-24 24l0 136 0 136c0 13.3 10.7 24 24 24l64 0 72 0 72 0 24.9 0c-.6-5.3-.9-10.6-.9-16l-16 0 0-136 64 0 0 10 16-30 0-124zM80 120c0-4.4 3.6-8 8-8l56 0 0 136-64 0 0-128zm80 128l0-136 56 0 0 136-56 0zm72 0l0-136 56 0 0 136-56 0zm72 0l0-136 56 0c4.4 0 8 3.6 8 8l0 128-64 0zm-16 16l0 136-56 0 0-136 56 0zm-72 0l0 136-56 0 0-136 56 0zm-72 0l0 136-56 0c-4.4 0-8-3.6-8-8l0-128 64 0zM352 400c0 61.9 50.1 112 112 112s112-50.1 112-112c0-18.4-4.5-36.5-13.2-52.7L487.5 206.1c-4.6-8.7-13.7-14.1-23.5-14.1s-18.9 5.4-23.5 14.1L365.2 347.3C356.5 363.5 352 381.6 352 400zm27.3-45.2l75.3-141.2c1.9-3.5 5.5-5.6 9.4-5.6s7.6 2.2 9.4 5.6l75.3 141.2c7.4 13.9 11.3 29.4 11.3 45.2c0 53-43 96-96 96s-96-43-96-96c0-15.8 3.9-31.3 11.3-45.2z"/></svg>

<svg xmlns="http://www.w3.org/2000/svg" viewBox="0 0 576 512"><!--! Font Awesome Pro 6.5.2 by @fontawesome - https://fontawesome.com License - https://fontawesome.com/license (Commercial License) Copyright 2024 Fonticons, Inc. --><path d="M64 48H384c26.5 0 48 21.5 48 48v73.5c4.9-3.2 10.3-5.7 16-7.3V96c0-35.3-28.7-64-64-64H64C28.7 32 0 60.7 0 96V416c0 35.3 28.7 64 64 64H344.2c-3.4-5.1-6.5-10.5-9.3-16H64c-26.5 0-48-21.5-48-48V96c0-26.5 21.5-48 48-48zm320 72c0-13.3-10.7-24-24-24H296 224 152 88c-13.3 0-24 10.7-24 24V256 392c0 13.3 10.7 24 24 24h64 72 72 24.9c-.6-5.3-.9-10.6-.9-16H304V264h64v10l16-30V120zM80 120c0-4.4 3.6-8 8-8h56V248H80V120zm80 128V112h56V248H160zm72 0V112h56V248H232zm72 0V112h56c4.4 0 8 3.6 8 8V248H304zm-16 16V400H232V264h56zm-72 0V400H160V264h56zm-72 0V400H88c-4.4 0-8-3.6-8-8V264h64zM352 400c0 61.9 50.1 112 112 112s112-50.1 112-112c0-18.4-4.5-36.5-13.2-52.7L487.5 206.1c-4.6-8.7-13.7-14.1-23.5-14.1s-18.9 5.4-23.5 14.1L365.2 347.3C356.5 363.5 352 381.6 352 400zm27.3-45.2l75.3-141.2c1.9-3.5 5.5-5.6 9.4-5.6s7.6 2.2 9.4 5.6l75.3 141.2c7.4 13.9 11.3 29.4 11.3 45.2c0 53-43 96-96 96s-96-43-96-96c0-15.8 3.9-31.3 11.3-45.2z"/></svg>
